X: 42407
T: West Clare Railway, The
R: reel
M: 4/4
K: Cmajor
EGAB c2 AB|c2 cd cAAG|EGAB c2 cd|(3ege de cAAG|
EGAB c2 AB|c2 cd cAAG|EGAB c2 cd|(3ege de cAAg||
aged c3g|aged cAAg|aged c3e|g3a (3gag eg|
aged c3g|aged cAAg|e~a3 gede|cded cGAG||

